!!!!SEGMENT: pl-sa--370-a-viii-10--001_anonim--concert-na-bolze-narodzenie-gloria-in-excelsis.krn
!!!cenid: 17xx:1350
!!!COM: Anonim
!!!COM-rismID: pe30004985
!!!CDT:
!!!CNT:
!!!OPR: Concert na Boże Narodzenie
!!!OTL: Gloria in excelsis
!!!OMV: 001
!!!PDT:
!!!AGN: Sacred; Motet; Christmas
!!!SMS-siglum: PL-SA
!!!SMS-shelfmark: 370/A VIII 10
!!!SMS-shelfwork: 001-001 M
!!!SMS-variant:
!!!SMS-altvar:
!!!NIFC-rismSourceID: 1001069976
!!!NIFC-islandoraID:
!!!URL-pdf-islandora:
!!!URL-scan: https://bc.bdsandomierz.pl/dlibra/publication/1674/edition/1642/content @EN{Scan in the Sandomierz Diocese Digital Library} @PL{Skany w portalu Cyfrowa Biblioteka Diecezjalna w Sandomierzu}
!!!ONB-nifc: UWAGA: części Concertu: 1. Gloria in excelsis (Et in terra to część Glorii), 2. Puer natus in Betleem, 3. O Józefie czego chcecie. Uwaga: okładka zrobiona z innego utworu
!!!AIN: 1 cbass 2 soprn 2 violn
!!!key: B-
**kern	**kern	**kern	**kern	**text	**kern	**text
*	*group2	*group2	*group1	*	*group1	*
*part5	*part4	*part3	*part2	*part2	*part1	*part1
*staff5	*staff4	*staff3	*staff2	*staff2	*staff1	*staff1
*I"Baſso.	*I"Violino 2do.	*I"Violino Primo-	*I"Canto 2do	*	*I"Canto=	*
*I'cb	*I'vl2	*I'vl1	*I'S 2	*	*I'S 1	*
*Icbass	*Ivioln	*Ivioln	*Isoprn	*	*Isoprn	*
*ICstr	*ICstr	*ICstr	*ICvox	*	*ICvox	*
*clefF4	*clefG2	*clefG2	*clefC1	*	*clefC1	*
*k[e-b-]	*k[b-e-]	*k[b-e-]	*k[b-e-]	*	*k[b-e-]	*
*B-:	*B-:	*B-:	*B-:	*	*B-:	*
*M3/4	*M3/4	*M3/4	*M3/4	*	*M3/4	*
=1	=1	=1	=1	=1	=1	=1
!LO:TX:a:i:t=Adagio	!LO:TX:a:i:t=Adagio	!LO:TX:a:i:t=Adagio	!LO:TX:a:i:t=Adagio	!	!LO:TX:a:i:t=Adagio	!
4BB-/	4.d/	4.f/	4.dd\	Glo-	4.ff\	Glo-
4BB-/	.	.	.	.	.	.
.	8c/	8e-/	8cc\	-ri-	8ee-\	-ri-
4BB-;/	4B-;/	4d;/	4b-;\	-a	4dd;\	-a
=2	=2	=2	=2	=2	=2	=2
4BB-/	4.d/	4.f/	4.dd\	Glo-	4.ff\	Glo-
4BB-/	.	.	.	.	.	.
.	8c/	8e-/	8cc\	-ri-	8ee-\	-ri-
4BB-;/	4B-;/	4d;/	4b-;\	-a	4dd;\	-a
=3	=3	=3	=3	=3	=3	=3
*	*tremolo	*tremolo	*	*	*	*
4BB-/	(8B-/L	(8d/L	8d/L	in	8b-\	in
.	8d/	8f/	8f/J	ex-	8cc\	ex-
4BB-/	8B-/	8d/	4b-\	-el-	4dd\	-el-
.	8d/	8f/	.	.	.	.
4BB-/	8B-/	8d/	4b-\	-cis	4dd\	-cis
.	8d/J)	8f/J)	.	.	.	.
=4	=4	=4	=4	=4	=4	=4
4r	8A/L	(8en/L	8b-\L	De-	8dd\L	De-
.	8c/	8f/	8a\J	.	8cc\J	.
*	*	*	*2\right	*	*2\right	*
4F\	8A/	8e/	2a;\	-o	2cc;\	-o
.	8c/	8f/	.	.	.	.
4FF/	8A/	8e/	.	.	.	.
.	8c/J	8f/)J	.	.	.	.
=5	=5	=5	=5	=5	=5	=5
4F\	(8A/L	(8e/L	8a\L	in	8cc\L	in
.	8c/	8f/	8b-\J	ex-	8dd\J	ex-
4F\	8A/	8e/	4cc\	-el-	4ee-\	-el-
.	8c/	8f/	.	.	.	.
4F\	8A/	8e/	4cc\	-cis	4ee-\	-cis
.	8c/)J	8f/)J	.	.	.	.
=6	=6	=6	=6	=6	=6	=6
4r	8B-/L	(8d/L	8cc\L	de-	8ee-\L	De-
.	8d/	8f/	8b-\J	.	8dd\J	.
4B-\	8B-/	8d/	2b-;\	-o	2dd;\	-o
.	8d/	8f/	.	.	.	.
4BB-/	8B-/	8d/	.	.	.	.
.	8d/J	8f/J)	.	.	.	.
*	*Xtremolo	*Xtremolo	*	*	*	*
!	!	!	!	!	!LO:LB:g=original	!
=7	=7	=7	=7	=7	=7	=7
!	!	!	!LO:TX:t=P:problem=mixed beam	!	!	!
4F\	4B-/	4d/	8b-\L	in	8dd\L	in
.	.	.	8f/J	ex-	8b-\J	ex-
4F\	4r	4r	4cc\	-el-	4ee-\	-el-
4F\	4r	4r	4b-\	-cis	4dd\	-cis
=8	=8	=8	=8	=8	=8	=8
4BB-/	4d/	4f/	4f/	De-	4cc\	de-
8r	16r	16r	4d/	-o	4b-\	-o.
.	16B-/LL	16b-\LL	.	.	.	.
8BB-/L	16d/	16dd\	.	.	.	.
.	16f/JJ	16ff\JJ	.	.	.	.
8D/	16b-/LL	16bb-\LL	4r	.	4r	.
.	16f/	16ff\	.	.	.	.
8F/J	16d/	16dd\	.	.	.	.
.	16B-/JJ	16b-\JJ	.	.	.	.
!LO:LB:g=original	!LO:LB:g=original	!	!LO:LB:g=original	!	!	!
=9	=9	=9	=9	=9	=9	=9
4F\	4B-/	4d/	8b-\	in	8dd\L	in
.	.	.	8f/	e-	8b-\J	ex-
4F\	4r	4r	4cc\	-xel-	4ee-\	-el-
4F\	4r	4r	4b-\	-cis	4dd\	-cis
!	!	!LO:LB:g=original	!	!	!	!
=10	=10	=10	=10	=10	=10	=10
4F\	4d/	4f/	4f/	de-	4cc\	de-
4BB-;/	4B-/	4d/	4d/	-o	4b-;\	-o
4r	4r;	4r;	4r;	.	4r	.
=11||	=11||	=11||	=11||	=11||	=11||	=11||
*M2/4	*M2/4	*M2/4	*M2/4	*	*M2/4	*
*tremolo	*tremolo	*	*	*	*	*
!LO:TX:a:i:t=allo.	!LO:TX:a:i:t=allo.	!LO:TX:b:i:t=Et in terra	!LO:TX:a:t=8	!	!	!
!LO:TX:b:i:t=Et in terra.	!LO:TX:b:i:t=Et in terra	!LO:TX:a:i:t=allo.	!LO:TX:a:i:t=allo&colon;	!	!LO:TX:a:i:t=allo.	!
[[>8BB-/L	8d/L	4b-\	0r	.	4b-\	Et
8BB-/	8f/	.	.	.	.	.
8BB-/	8d/	8cc\L	.	.	8cc\L	in
8BB-/J	8f/J	8dd\J	.	.	8dd\J	.
=12	=12	=12	=12	=12	=12	=12
[[>8BB-/L]]	8d/L	8b-/L	.	.	8b-\L	ter-
8BB-/	8f/	8a/	.	.	8a\J	.
8BB-/	8d/	8g/	.	.	8g/L	-ra
8BB-/J	8f/J	8f/J	.	.	8f/J	.
*	*Xtremolo	*	*	*	*	*
=13	=13	=13	=13	=13	=13	=13
[[>8BB-/L]]	8e-/L	8g/L	.	.	8g/L	ter-
8BB-/	8d/	8f/	.	.	8f/J	.
8BB-/	8e-/	8g/	.	.	8g/L	-ra
8BB-/J	8f/J	8a/J	.	.	8a/J	.
=14	=14	=14	=14	=14	=14	=14
[[>8BB-/L]]	4d/	4b-\	.	.	8b-\	pax.
8BB-/	.	.	.	.	8r	.
8BB-/	4r	4r	.	.	4r	.
8BB-/J	.	.	.	.	.	.
=15	=15	=15	=15	=15	=15	=15
*	*tremolo	*	*	*	*	*
[[>8BB-/L]]	(8d/L	4b-\	0r	.	4b-\	et
8BB-/	8f/	.	.	.	.	.
8BB-/	8d/	8cc\L	.	.	8cc\L	in
8BB-/J	8f/)J	8dd\J	.	.	8dd\J	.
!	!	!	!	!	!LO:LB:g=original	!
=16	=16	=16	=16	=16	=16	=16
[[>8BB-/L]]	(8d/L	8b-/L	.	.	8b-\L	ter-
8BB-/	8f/	8a/	.	.	8a\J	.
8BB-/	8d/	8g/	.	.	8g/L	-ra
8BB-/J	8f/J)	8f/J	.	.	8f/J	.
*	*Xtremolo	*	*	*	*	*
=17	=17	=17	=17	=17	=17	=17
[[>8BB-/L]]	8e-/L	8g/L	.	.	8g/L	ter-
8BB-/	8d/	8f/	.	.	8f/J	.
8BB-/	8e-/	8g/	.	.	8g/L	-ra
8BB-/J	8f/J	8a/J	.	.	8a/J	.
=18	=18	=18	=18	=18	=18	=18
8BB-/L]]	4d/	4b-\	.	.	8b-\	pax
8BB-/	.	.	.	.	8r	.
8BB-/	4r	4r	.	.	4r	.
8BB-/J	.	.	.	.	.	.
*Xtremolo	*	*	*	*	*	*
=19	=19	=19	=19	=19	=19	=19
4F\	4A/	4f/	4cc\	pax	4ee-\	pax
4F\	4A/	4f/	4cc\	bo-	4ee-\	bo-
=20	=20	=20	=20	=20	=20	=20
8r	8r	8r	4a\	-ne	4cc\	-ne
8F\L	8A/L	8f/L	.	.	.	.
8A\	8c/	8a/	4r	.	4r	.
8c\J	8f/J	8cc/J	.	.	.	.
=21	=21	=21	=21	=21	=21	=21
4B-\	4d/	4b-/	4dd\	pax	4ff\	pax
4B-\	4d/	4b-/	4dd\	bo-	4ff\	bo-
!LO:LB:g=original	!LO:LB:g=original	!	!	!	!	!
=22	=22	=22	=22	=22	=22	=22
8r	8r	8r	4b-\	-ne	4dd\	-ne
8F/L	8f/L	8b-\L	.	.	.	.
8D/	8b-/	8dd\	4r	.	4r	.
8BB-/J	8dd/J	8ff\J	.	.	.	.
=23	=23	=23	=23	=23	=23	=23
4D/	4dd\	4ff\	4dd\	pax	4ff\	pax
4D/	8dd\L	8ff\L	8dd\L	bo-	8ff\L	bo-
.	8dd\J	8ff\J	8dd\J	-ne	8ff\J	-ne
!	!	!LO:LB:g=original	!	!	!	!
=24	=24	=24	=24	=24	=24	=24
!	!LO:TX:t=P:problem=mixed beam	!	!	!	!	!
4E-/	8ee-\L	8gg\L	8ee-\L	Vo-	8gg\L	Vo-
.	8cc\	8ee-\	8cc\J	.	8ee-\J	.
4En/	8e-/	8cc\	8a/L	-lun-	8cc\L	-lun-
.	8c/J	8a\J	8f/J	.	8a\J	.
=25	=25	=25	=25	=25	=25	=25
4F\	4d/	4b-\	4d/	-ta-	4b-\	-ta-
4F\	4f/	4cc\	4f/	.	4cc\	.
=26	=26	=26	=26	=26	=26	=26
4BB-/	4d/	4b-\	4d/	-tis	4b-\	-tis
4r	4r	4r	4r	.	4r	.
=27	=27	=27	=27	=27	=27	=27
*	*tremolo	*	*	*	*	*
!	!	!	!LO:TX:t=P:problem=takty nr 27-34 zapisane repetycją, adnotacja "bis"	!	!	!
8c\L	(8e-/L	4f/	4cc\yy	pax	4ee-\	pax
8A\J	8f/	.	.	.	.	.
4F\	8e-/	4f/	4cc\yy	bo-	4ee-\	bo-
.	8f/)J	.	.	.	.	.
=28	=28	=28	=28	=28	=28	=28
8r	(8e-/L	8r	4a\yy	-ne	4cc\	-ne
8F\L	8f/	8f/L	.	.	.	.
8A\	8e-/	8a/	4ryy	.	4r	.
8c\J	8f/J)	8cc/J	.	.	.	.
=29	=29	=29	=29	=29	=29	=29
8d\L	(8d/L	4b-\	4dd\yy	pax	4ff\	pax
8B-\J	8f/	.	.	.	.	.
4F\	8d/	4b-\	4dd\yy	bo-	4ff\	bo-
.	8f/)J	.	.	.	.	.
!	!	!	!	!	!LO:LB:g=original	!
=30	=30	=30	=30	=30	=30	=30
8r	(8d/L	8r	4b-\yy	-ne	4dd\	-ne
8F\L	8f/	8b-\L	.	.	.	.
8B-\	8d/	8dd\	4ryy	.	4r	.
8d\J	8f/J)	8ff\J	.	.	.	.
*	*Xtremolo	*	*	*	*	*
=31	=31	=31	=31	=31	=31	=31
4D\	4dd\	4ff\	4dd\yy	pax	4ff\	pax
4D\	8dd\L	8ff\L	8dd\Lyy	bo-	8ff\L	bo-
.	8dd\J	8ff\J	8dd\Jyy	-ne	8ff\J	-ne
=32	=32	=32	=32	=32	=32	=32
!	!LO:TX:t=P:problem=mixed beam	!	!	!	!	!
4E-\	8ee-\L	8gg\L	8ee-\Lyy	Vo-	8gg\L	Vo-
.	8cc\	8ee-\	8cc\Jyy	.	8ee-\J	.
4En\	8e-/	8cc\	8a/Lyy	-lun-	8cc\L	-lun-
.	8c/J	8a\J	8f/Jyy	.	8a\J	.
=33	=33	=33	=33	=33	=33	=33
4F\	4d/	4b-\	4d/yy	-ta-	4b-\	-ta-
4F\	4f/	4cc\	4f/yy	.	4cc\	.
!LO:LB:g=original	!	!	!	!	!	!
=34	=34	=34	=34	=34	=34	=34
4BB-/	4d/	4b-\	4d/yy	-tis	4b-\	-tis
4r	4r	4r	4ryy	.	4r	.
=35	=35	=35	=35	=35	=35	=35
4BB-/	4b-\	4dd\	4b-\	pax	4dd\	pax
4BB-/	4a\	4cc\	4a\	.	4cc\	pax
!	!LO:LB:g=original	!	!	!	!	!
=36	=36	=36	=36	=36	=36	=36
4BB-/	4b-\	4dd\	4b-\	pax	4dd\	pax
4r	4r	4r	4r	.	4r	.
!	!	!	!LO:LB:g=original	!	!	!
=37	=37	=37	=37	=37	=37	=37
4B-\	4d/	4b-\	4d/	pax	4b-\	pax
4F\	4c/	4a\	4c/	pax	4a\	pax
=38	=38	=38	=38	=38	=38	=38
4BB-/	4d/	4b-\	4d/	pax.	4b-\	pax
4r	4r;	4r;	4r	.	4r	.
==	==	==	==	==	==	==
*-	*-	*-	*-	*-	*-	*-
!!!system-decoration: [(g1)][(g2)]<s5>
!!!RDF**kern: > = above
!!!ENC: Andrzej Borzym
!!!END: 2020-11-28
!!!ENC: Andrzej Kubiczek
!!!END: 2021-12-30
!!!YEC: Copyright 2022 Narodowy Instytut Fryderyka Chopina (https://polishscores.org)
!!!YEM: Licence CC BY 4.0 (https://creativecommons.org/licenses/by/4.0)
